flaticon/gastronomy/fish.svg

<svg xmlns="http://www.w3.org/2000/svg" width="32" height="32" viewBox="0 0 24 24">
    <path d="M 4.582031 16.292969 C 3.988281 15.703125 3.03125 15.703125 2.4375 16.292969 C 2.152344 16.578125 1.996094 16.960938 1.996094 17.367188 C 1.996094 17.769531 2.152344 18.152344 2.4375 18.4375 C 2.734375 18.730469 3.121094 18.878906 3.511719 18.878906 C 3.898438 18.878906 4.285156 18.730469 4.582031 18.4375 C 4.867188 18.152344 5.027344 17.769531 5.027344 17.367188 C 5.027344 16.960938 4.867188 16.578125 4.582031 16.292969 Z M 3.867188 17.722656 C 3.667969 17.921875 3.351562 17.921875 3.152344 17.722656 C 3.058594 17.628906 3.003906 17.5 3.003906 17.367188 C 3.003906 17.230469 3.058594 17.105469 3.152344 17.007812 C 3.25 16.910156 3.382812 16.859375 3.511719 16.859375 C 3.640625 16.859375 3.769531 16.910156 3.867188 17.007812 C 3.960938 17.105469 4.015625 17.230469 4.015625 17.367188 C 4.015625 17.5 3.960938 17.625 3.867188 17.722656 Z M 3.867188 17.722656"/>
    <path d="M 23.886719 6.914062 C 23.808594 6.542969 23.5625 6.230469 23.226562 6.082031 C 22.996094 5.980469 22.910156 5.746094 22.796875 5.375 C 22.683594 4.996094 22.472656 4.292969 21.675781 4.363281 C 21.40625 4.390625 21.171875 4.3125 21.011719 4.152344 C 20.847656 3.988281 20.773438 3.753906 20.800781 3.484375 C 20.851562 2.910156 20.671875 2.386719 20.296875 2.007812 C 19.9375 1.652344 19.453125 1.480469 18.890625 1.5 C 18.882812 1.46875 18.878906 1.433594 18.871094 1.402344 C 18.800781 1.019531 18.652344 0.234375 17.554688 0.0859375 C 17.359375 0.0234375 16.828125 -0.105469 16.386719 0.167969 C 16.175781 0.296875 15.914062 0.5625 15.859375 1.140625 L 15.847656 4.300781 L 10.6875 4.300781 C 9.886719 4.300781 9.109375 4.398438 8.355469 4.570312 C 8.085938 3.554688 7.640625 2.59375 7 1.710938 L 6.75 1.367188 L 6.367188 1.554688 C 6.273438 1.601562 4.007812 2.742188 3.386719 4.707031 C 3.132812 5.5 3.179688 6.304688 3.527344 7.109375 C 1.421875 9.050781 0.0898438 11.820312 0.0898438 14.902344 L 0.0898438 24 L 9.117188 24 C 11.96875 24 14.648438 22.890625 16.664062 20.875 C 16.90625 20.628906 17.136719 20.375 17.355469 20.109375 C 17.578125 20.128906 17.808594 20.140625 18.054688 20.140625 C 19.480469 20.140625 21.292969 19.792969 23.09375 18.488281 L 23.4375 18.238281 L 23.25 17.855469 C 23.191406 17.738281 21.890625 15.179688 19.679688 14.769531 C 19.742188 14.296875 19.789062 13.816406 19.789062 13.332031 L 19.789062 8.203125 L 22.976562 8.234375 L 23.019531 8.226562 C 23.25 8.191406 23.453125 8.082031 23.617188 7.910156 L 23.617188 7.90625 C 23.859375 7.644531 23.960938 7.273438 23.886719 6.914062 Z M 4.34375 6.417969 C 4.199219 5.941406 4.203125 5.480469 4.347656 5.015625 C 4.707031 3.886719 5.839844 3.050781 6.441406 2.679688 C 6.875 3.355469 7.191406 4.078125 7.394531 4.832031 C 6.9375 4.984375 6.496094 5.167969 6.070312 5.375 C 5.96875 5.425781 5.863281 5.472656 5.761719 5.527344 C 5.617188 5.601562 5.484375 5.683594 5.34375 5.765625 C 5.203125 5.847656 5.0625 5.929688 4.925781 6.019531 C 4.800781 6.097656 4.683594 6.183594 4.5625 6.269531 C 4.488281 6.320312 4.414062 6.363281 4.34375 6.417969 Z M 19.503906 15.761719 C 20.777344 16 21.71875 17.277344 22.125 17.925781 C 20.667969 18.863281 19.226562 19.128906 18.070312 19.132812 C 18.726562 18.121094 19.199219 17.011719 19.480469 15.84375 C 19.484375 15.816406 19.496094 15.789062 19.503906 15.761719 Z M 22.878906 7.222656 L 18.777344 7.183594 L 18.777344 13.332031 C 18.777344 13.914062 18.71875 14.488281 18.617188 15.054688 L 18.605469 15.125 C 18.578125 15.277344 18.542969 15.429688 18.503906 15.578125 C 18.488281 15.644531 18.472656 15.710938 18.457031 15.773438 C 18.125 17.039062 17.535156 18.238281 16.722656 19.273438 L 16.527344 19.523438 C 16.34375 19.742188 16.152344 19.957031 15.949219 20.160156 C 14.125 21.984375 11.699219 22.992188 9.117188 22.992188 L 1.101562 22.992188 L 1.101562 14.902344 C 1.101562 11.96875 2.429688 9.339844 4.511719 7.578125 C 5.300781 6.914062 6.175781 6.382812 7.128906 6.003906 C 7.136719 6.003906 7.144531 6 7.148438 5.996094 C 7.464844 5.871094 7.785156 5.765625 8.113281 5.671875 C 8.933594 5.445312 9.796875 5.3125 10.691406 5.3125 L 16.851562 5.3125 L 16.867188 1.191406 C 16.875 1.082031 16.902344 1.035156 16.914062 1.027344 C 16.964844 0.996094 17.140625 1.007812 17.257812 1.050781 L 17.382812 1.082031 C 17.792969 1.128906 17.816406 1.242188 17.878906 1.589844 C 17.933594 1.863281 18.070312 2.585938 18.914062 2.511719 C 19.183594 2.484375 19.421875 2.5625 19.582031 2.722656 C 19.742188 2.882812 19.820312 3.121094 19.792969 3.390625 C 19.738281 3.964844 19.917969 4.488281 20.296875 4.867188 C 20.664062 5.230469 21.171875 5.40625 21.730469 5.371094 C 21.761719 5.445312 21.804688 5.578125 21.832031 5.671875 C 21.960938 6.082031 22.148438 6.707031 22.816406 7.003906 C 22.863281 7.023438 22.886719 7.074219 22.894531 7.117188 C 22.902344 7.136719 22.90625 7.1875 22.875 7.222656 Z M 22.945312 7.300781 L 22.945312 7.285156 L 23.246094 7.566406 Z M 22.945312 7.300781"/>
    <path d="M 3.511719 12.574219 L 3.511719 13.585938 C 7.410156 13.585938 10.582031 16.757812 10.582031 20.65625 L 11.589844 20.65625 C 11.589844 16.199219 7.964844 12.574219 3.511719 12.574219 Z M 3.511719 12.574219"/>
    <path d="M 5.152344 10.929688 L 5.152344 11.941406 C 9.054688 11.941406 12.226562 15.113281 12.226562 19.011719 L 13.234375 19.011719 C 13.234375 14.554688 9.609375 10.929688 5.152344 10.929688 Z M 5.152344 10.929688"/>
    <path d="M 6.722656 9.359375 L 6.722656 10.371094 C 10.625 10.371094 13.796875 13.542969 13.796875 17.441406 L 14.804688 17.441406 C 14.804688 12.984375 11.179688 9.359375 6.722656 9.359375 Z M 6.722656 9.359375"/>
    <path d="M 8.367188 7.714844 L 8.367188 8.726562 C 12.269531 8.726562 15.441406 11.898438 15.441406 15.796875 L 16.449219 15.796875 C 16.449219 11.339844 12.824219 7.714844 8.367188 7.714844 Z M 8.367188 7.714844"/>
</svg>

<svg xmlns="http://www.w3.org/2000/svg" width="32" height="32" viewBox="0 0 24 24">
    <path d="M4.582 16.293a1.52 1.52 0 0 0-2.144 0 1.51 1.51 0 0 0-.442 1.074 1.507 1.507 0 0 0 1.516 1.512 1.51 1.51 0 0 0 1.07-2.586zm-.715 1.43a.506.506 0 1 1 0-.715.515.515 0 0 1 .149.36.513.513 0 0 1-.149.355zm0 0"/>
    <path d="M23.887 6.914a1.169 1.169 0 0 0-.66-.832c-.23-.102-.317-.336-.43-.707-.113-.379-.324-1.082-1.121-1.012-.27.028-.504-.05-.664-.21-.164-.165-.239-.4-.211-.669.05-.574-.13-1.097-.504-1.476-.36-.356-.844-.528-1.406-.508-.008-.031-.012-.066-.02-.098-.07-.382-.219-1.168-1.316-1.316-.196-.063-.727-.191-1.168.082-.211.129-.473.394-.528.973l-.011 3.16h-5.16c-.801 0-1.579.097-2.333.27A8.583 8.583 0 0 0 7 1.71l-.25-.344-.383.188c-.094.047-2.36 1.187-2.98 3.152-.254.793-.207 1.598.14 2.402C1.422 9.051.09 11.82.09 14.902V24h9.027a10.601 10.601 0 0 0 8.238-3.89c.223.019.454.03.7.03 1.425 0 3.238-.347 5.039-1.652l.343-.25-.187-.383c-.059-.117-1.36-2.675-3.57-3.085.062-.473.11-.954.11-1.438V8.203l3.187.031.043-.007c.23-.036.433-.145.597-.317v-.004c.242-.261.344-.633.27-.992zM4.344 6.418a2.322 2.322 0 0 1 .004-1.402C4.707 3.886 5.84 3.05 6.44 2.68c.434.675.75 1.398.954 2.152-.457.152-.899.336-1.325.543-.101.05-.207.098-.308.152-.145.075-.278.157-.418.239a9.16 9.16 0 0 0-.418.254c-.125.078-.242.164-.364.25-.074.05-.148.093-.218.148zm15.16 9.344c1.273.238 2.215 1.515 2.621 2.164a7.458 7.458 0 0 1-4.055 1.207 10.585 10.585 0 0 0 1.41-3.29c.004-.027.016-.054.024-.081zm3.375-8.54l-4.102-.038v6.148c0 .582-.058 1.156-.16 1.723l-.012.07a5.851 5.851 0 0 1-.101.453c-.016.067-.031.133-.047.195a9.645 9.645 0 0 1-1.734 3.5l-.196.25a9.6 9.6 0 0 1-7.41 3.469H1.102v-8.09a9.578 9.578 0 0 1 3.41-7.324 9.515 9.515 0 0 1 3.601-1.906 9.669 9.669 0 0 1 2.578-.36h6.16l.016-4.12c.008-.11.035-.157.047-.165.05-.03.227-.02.344.024l.125.031c.41.047.433.16.496.508.055.273.191.996 1.035.922.27-.028.508.05.668.21.16.16.238.4.211.669-.055.574.125 1.097.504 1.476.367.363.875.54 1.433.504.032.074.075.207.102.3.129.411.316 1.036.984 1.333.047.02.07.07.079.113.007.02.011.07-.02.106zm.066.079v-.016l.301.281zm0 0"/>
    <path d="M3.512 12.574v1.012a7.079 7.079 0 0 1 7.07 7.07h1.008c0-4.457-3.625-8.082-8.078-8.082zm0 0"/>
    <path d="M5.152 10.93v1.011c3.903 0 7.075 3.172 7.075 7.07h1.007c0-4.456-3.625-8.081-8.082-8.081zm0 0"/>
    <path d="M6.723 9.36v1.011c3.902 0 7.074 3.172 7.074 7.07h1.008c0-4.457-3.625-8.082-8.082-8.082zm0 0"/>
    <path d="M8.367 7.715v1.012c3.903 0 7.074 3.171 7.074 7.07h1.008c0-4.457-3.625-8.082-8.082-8.082zm0 0"/>
</svg>
